assets/gcpcloudsql/original.svg

<svg height="24" width="24" xmlns="http://www.w3.org/2000/svg"><g fill-rule="evenodd"><path d="m4.67 10.44v3.01l7.33 3.9v-3.01zm0 4.65v3.01l7.33 3.9v-3.01z" fill="#aecbfa"/><path d="m12 17.35 7.33-3.9v-3.01l-7.33 3.9zm0 4.65 7.33-3.9v-3.01l-7.33 3.9z" fill="#669df6"/><path d="m19.33 8.91v-3.01l-7.33-3.9v3.01z" fill="#4285f4"/><path d="m12 2-7.33 3.9v3.01l7.33-3.9z" fill="#669df6"/><path d="m4.67 5.87v3.02l7.33 3.9v-3.02z" fill="#aecbfa"/><path d="m12 12.79 7.33-3.9v-3.02l-7.33 3.9z" fill="#669df6"/></g></svg>

<svg xmlns="http://www.w3.org/2000/svg" width="24" height="24"><g fill-rule="evenodd"><path fill="#aecbfa" d="M4.67 10.44v3.01l7.33 3.9v-3.01zm0 4.65v3.01L12 22v-3.01z"/><path fill="#669df6" d="m12 17.35 7.33-3.9v-3.01L12 14.34zM12 22l7.33-3.9v-3.01L12 18.99z"/><path fill="#4285f4" d="M19.33 8.91V5.9L12 2v3.01z"/><path fill="#669df6" d="M12 2 4.67 5.9v3.01L12 5.01z"/><path fill="#aecbfa" d="M4.67 5.87v3.02l7.33 3.9V9.77z"/><path fill="#669df6" d="m12 12.79 7.33-3.9V5.87L12 9.77z"/></g></svg>
